X:350
T: Cleaning the Hen-House
S: Music of Ireland - The Big Session (DJ Taylor)
L: 1/8
M: 4/4
R: reel
K: D
AF F2 dF F2|BAFB AF F2|AF F2 dfdB|AFDF E2 FG|
AF F2 dF F2|BAFB AF F2|BABc dfef|dBAF E3 ||A|
BABc dfef|d2 ef dBBA|BABc dfef|dBAF E3 A|
BABc dfef|d2 ef df f2|bfaf egfe|dBAF E3 G||
